_includes/icons/color-windows-xp.svg

<svg fill="#666" height="50" viewBox="0 0 48 48" width="50" xmlns="http://www.w3.org/2000/svg"><path d="m22.808594 24.511719-3.488281 12.078125c-3.03125-2.054688-6.328125-3.746094-13.320313-.832031l3.410156-11.945313.039063-.019531c6.964844-2.886719 10.335937-1.347656 13.359375.71875z" fill="#03a9f4"/><path d="m24.632813 25.679688-3.445313 11.941406c3.027344 2.070312 6.382813 3.71875 13.363281.808594l3.324219-11.644532c-7.113281 2.453125-10.214844.945313-13.242187-1.105468z" fill="#ffc107"/><path d="m23.386719 22.335938 3.441406-11.964844c-3.027344-2.058594-6.386719-3.714844-13.375-.796875l-3.441406 12.015625c2.773437-1.152344 4.96875-1.683594 6.804687-1.664063 2.789063.015625 4.746094 1.175782 6.570313 2.410157z" fill="#ff5722"/><path d="m28.644531 11.632813-3.441406 12.03125c3.019531 2.0625 6.667969 3.75 13.359375.738281l3.4375-11.988281c-6.980469 2.902343-10.335937 1.273437-13.355469-.78125z" fill="#7cb342"/></svg>

<svg xmlns="http://www.w3.org/2000/svg" viewBox="0 0 48 48" width="50" height="50" fill="#666"><path d="M 22.808594 24.511719 L 19.320313 36.589844 C 16.289063 34.535156 12.992188 32.84375 6 35.757813 L 9.410156 23.8125 L 9.449219 23.792969 C 16.414063 20.90625 19.785156 22.445313 22.808594 24.511719 Z" fill="#03a9f4"/><path d="M 24.632813 25.679688 L 21.1875 37.621094 C 24.214844 39.691406 27.570313 41.339844 34.550781 38.429688 L 37.875 26.785156 C 30.761719 29.238281 27.660156 27.730469 24.632813 25.679688 Z" fill="#ffc107"/><path d="M 23.386719 22.335938 L 26.828125 10.371094 C 23.800781 8.3125 20.441406 6.65625 13.453125 9.574219 L 10.011719 21.589844 C 12.785156 20.4375 14.980469 19.90625 16.816406 19.925781 C 19.605469 19.941406 21.5625 21.101563 23.386719 22.335938 Z" fill="#ff5722"/><path d="M 28.644531 11.632813 L 25.203125 23.664063 C 28.222656 25.726563 31.871094 27.414063 38.5625 24.402344 L 42 12.414063 C 35.019531 15.316406 31.664063 13.6875 28.644531 11.632813 Z" fill="#7cb342"/></svg>
